X:1
T:Rhapsody on a Theme of Paganini
T:Rhapsody on a Theme of Paganini
T:Variation XXIV
T:Sergei Rachmaninoff
T:Arranged for 2 pianos by the composer
C:Sergei Rachmaninoff
%%score { ( 1 3 ) | ( 2 4 ) } { ( 5 6 ) | ( 7 8 ) }
L:1/8
Q:1/4=160
M:4/4
K:C
V:1 treble nm="Piano I" snm="Pno. I"
V:3 treble 
V:2 treble 
V:4 treble 
V:5 treble nm="Piano II" snm="Pno. II"
V:6 treble 
V:7 treble 
V:8 treble 
V:1
!p!"^Allegro vivace" (3.d.a.e (3.c'.e.e' (3.e.a'.e!mp!!8va(! .e''!8va)! z | %1
!p! (3.d.a.e (3.c'.e.e' (3.e.a'.e!mp!!8va(! .e''!8va)! z | %2
 (3.e.e'.e (3.a.e.e' (3.^d.a.=d (3.e'.^c.^g | (3.=c.e'.B (3.^d'._B.=d' (3.A.^c'._A (3.=c'.=A.^c' | %4
!p! (3.d.f.d (3.a.d.d' (3.d.a'.d!mp!!8va(! .d''!8va)! z | %5
!p! (3.d.f.d (3.a.d.d' (3.d.a'.d!mp!!8va(! .d''!8va)! z | %6
!p!!8va(! (3.a.a'._b (3.d'.a.a' (3.^g.d'.=g (3.a'.^f.^c' | %7
 (3.=f.a'.e (3.^g'._e.=g' (3.d.^f'.^c (3.=f'.d.e' | %8
!p! (3.a.a'.^g (3._b'.=g.a' (3.^f.^g'.=f (3.=g'.^f.^f' | %9
 (3.g.g'.^f (3._a'.=f.g' (3.e.^f'._e (3.=f'.=e.e' | %10
 (3.f.f'.e (3._g'._e.f' (3.=e.e'.^d (3.f'.=d.e' | %11
 (3._e._e'.d (3._f'._d.e'!8va)! (3.c.d'._c (3._d'._B.c' | %12
!<(! (3.A.b._B (3._b.=B.a!<)!!mp!!>(! (3.^B.^g.=B (3.a._B!>)!!p!.a | %13
!<(! (3.A.=b._B (3.c'.=B.^c'!<)!!mp!!>(! (3.^A.^b.=B (3.c'.^B!>)!!p!.d' | %14
!<(! (3.=B.^c'.=c (3.=c'._d.b!<)!!mp!!>(! (3.=d._b._d (3.=b.c!>)!!p!.c' | %15
 (3.B.^c'.=c (3.d'.^c.^d' (3.=c.=d'._d (3._e'.=d.=e' | %16
"_cresc." (3.^c.^d'.=d (3.e'._e.f' (3.=e._g'._e (3.f'.=e.g' | %17
!8va(! (3._e.f'.e (3.^f'.=f.g' (3.^f._a'.=f (3.g'.^f.a' | (3_ef'=e (3_g'f=g' (3_g_a'f (3=g'_ga' | %19
 (3_g_a'f (3=g'_ga' (3^f^g'^e (3=g'f^g' |!f! (3.^f.^g'.=f (3.=g'.e.^g' (3.^f.g'.=f (3.=g'.e.^g' | %21
"_dim." (3.f.=g'.e (3.^g'.f.=g' (3.e.^g'.f (3.=g'.e.^g' | %22
!p! (3.[aa'][c'e']a (3.[^c'^c''][^f'a']c' (3.[aa'][=c'e']a (3.[=c'=c''][=f'_a']c' | %23
 (3.[a=a'][c'e']a (3.[_b_b'][d'f']b (3.[_e_e'][gb]e (3.[=e=e'][^g=b]e!8va)! | %24
 (3.[Aa] [ce]A (3.[dd'] [^fa]d (3.[Aa] [ce]A (3.[^c^c'] [=fa]^c | %25
 (3.[Aa] [=ce]A (3.[cc'] [_eg]c (3.[Ff] [_Bd]F [^G^g][=Bd] | %26
[M:2/4][K:bass][Q:1/4=192]"^Più vivo"!p! z[I:staff +1] [F,,_B,,]/[I:staff -1][_D,F,]/[I:staff +1] [E,,A,,]/[I:staff -1][C,E,]/[I:staff +1][^D,,^G,,]/[I:staff -1][B,,^D,]/ | %27
[I:staff +1] [A,,,A,,]/[I:staff -1][C,A,]/[I:staff +1][F,,_B,,]/[I:staff -1][_D,F,]/[I:staff +1] [E,,A,,]/[I:staff -1][C,E,]/[I:staff +1][^D,,^G,,]/[I:staff -1][B,,^D,]/ | %28
"_cresc."[I:staff +1] [A,,,A,,]/[I:staff -1][C,A,]/[I:staff +1][F,,_B,,]/[I:staff -1][_D,F,]/[I:staff +1] [E,,A,,]/[I:staff -1][C,E,]/[I:staff +1][^D,,^G,,]/[I:staff -1][B,,^D,]/ | %29
[I:staff +1] [A,,,A,,]/[I:staff -1][C,A,]/[I:staff +1][F,,_B,,]/[I:staff -1][_D,F,]/[I:staff +1] [E,,A,,]/[I:staff -1][C,E,]/[I:staff +1][^D,,^G,,]/[I:staff -1][B,,^D,]/ | %30
!mf![I:staff +1] [A,,,A,,]/[I:staff -1][C,A,]/[I:staff +1]B,,/[I:staff -1][D,F,A,]/[I:staff +1] [E,,C,]/[I:staff -1][E,^G,]/[I:staff +1][D,^F,]/[I:staff -1][G,CE]/ | %31
[K:treble] x4 | x4 | %33
[I:staff +1] [A,EA]/[I:staff -1][ce]/[I:staff +1]B/[I:staff -1][dfa]/[I:staff +1] [Ec]/[I:staff -1][e^g]/[I:staff +1][d^f]/[I:staff -1][gc'e']/ | %34
 x/!8va(! [bc'e'b']/x/[ac'e'a']/ x/ [gc'e'g']/x/[ac'e'a']/ | %35
 x/ [bc'e'b']/x/"_cresc."[ac'e'a']/ x/ [gc'e'g']/x/[ac'e'a']/ | %36
 x/ [bc'e'b']/x/[ac'e'a']/ x/ [gc'e'g']/x/[ac'e'a']/ | %37
 x/ [bc'e'b']/x/[ac'e'a']/ x/ [gc'e'g']/x/[ac'e'a']/ |!ff! z/ c''/b'/a'/ (3!>![e'e'']a'c'' | %39
 f'/a'/g'/f'/ (3[c'c'']f'a' | a'/c''/b'/a'/ (3!>![e'e'']a'c'' | f'/a'/g'/f'/ (3!>![c'c'']f'a' | %42
 g'/_b'/a'/g'/ (3!>![d'd'']g'b' | _e'/g'/f'/e'/ (3!>![_b_b']e'g' | f'/a'/g'/f'/ (3[c'c'']f'a' | %45
 f'/a'/g'/f'/ (3[c'c'']f'a' | [d'^f'a'd'']2!8va)![K:bass]!ff! [^F,A,]/D,/[I:staff +1][D,,A,,]/D,/ | %47
[I:staff -1] [D,^F,]/A,/[I:staff +1][A,,D,^F,]/A,/[I:staff -1][K:treble] x2 | %48
 [A,D^F]/A/[I:staff +1][A,D^F]/A/[I:staff -1] [d^fa]/A/[I:staff +1][A,DF]/A/ | %49
[I:staff -1] [Ad^f]/a/[I:staff +1][Ad^f]/a/[I:staff -1] [d'f'^a']/a/[I:staff +1][Adf]/a/ | %50
[I:staff -1] [d'f'=a']/a/[I:staff +1][df_b]/_B/[I:staff -1] [dfa]/A/[I:staff +1][DF_B]/_B,/ | %51
[I:staff -1] x2[K:bass] [F,A,]/D,/A,,/[I:staff +1]D,,/ | %52
[I:staff -1] !>!D,,2[K:treble]!mf!"_cresc." !-(!A,2 | !-(!A2 !-(!a2 | %54
!ff!!8va(! !-)!!>!a''2 x/ [a'^c''e''a'']/x/[a'c''e''a'']/ | %55
 x/ [^f'a'^c''^f'']/x/[f'a'c''f'']/ x/ [e'a'b'e'']/x/[e'a'b'e'']/ | %56
 x/ [^c'e'a'^c'']/x/[c'e'a'c'']/ x/ [ac'e'a']/x/[ac'e'a']/ | %57
 x/ [^fa^c'^f']/x/[fac'f']/ x/ [eabe']/x/[eabe']/!8va)! | %58
[I:staff +1] [A,^CEA]/[I:staff -1][^cea^c']/[I:staff +1][A,CEA]/[I:staff -1][ceac']/[I:staff +1] [^F,A,C^F]/[I:staff -1][Acea]/[I:staff +1][F,A,CF]/[I:staff -1][Acea]/ | %59
 z/ [^FA^c^f]/x/[FAcf]/ x/ [EAce]/x/[Ace]/ | x/ [^CEA^c]/x/[CEAc]/ x/ [A,CEA]/x/[A,CEA]/ | %61
[K:bass][I:staff +1] [E,,A,,^C,E,]/[I:staff -1][^F,^C^F]/[I:staff +1][E,,A,,C,E,]/[I:staff -1][F,CF]/[I:staff +1] [^C,,^F,,C,]/[I:staff -1][E,A,E]/[I:staff +1][C,,F,,C,]/[I:staff -1][E,A,E]/ | %62
 z2[K:treble]!ff![I:staff +1] [A,A]/[I:staff -1][_B_b]/[I:staff +1][A,A]/[I:staff -1][Bb]/ | %63
 z2!8va(! x/ [_b_b']/x/[bb']/ | z2 x/ [_b'_b'']/x/[b'b'']/ | %65
 x/ [_b'_b'']/x/[b'b'']/x/[b'b'']/x/[b'b'']/!8va)! | z4 |!p! [^G,DE] z z/ ^G/^F/E/ | [A,A] z z2 |] %69
V:2
 (3.A,.[Ec].A, (3.[Ec].A,.[Ec] (3.A,.[E^c].A, .[Ed] z | %1
 (3.A,.[Ec].A, (3.[Ec].A,.[Ec] (3.A,.[E^c].A, .[Ed] z | %2
 (3.A,.[Ec]._D (3.[FB].A,.[Ec] (3.B,.[^DA].G, (3.[=D_B]._B,.[^C^G] | %3
[K:bass] (3.A,.[EA].^F, (3.[^D^G].G,.[=D=G] (3.E,.[^C^F].=F, (3.[=C=F]._E,.[^CG] | %4
 (3.D,.[A,F].D, (3.[A,F].D,.[A,F] (3.D,.[A,^F].D, .[_B,G] z | %5
 (3.D,.[A,F].D, (3.[A,F].D,.[A,F] (3.D,.[A,^F].D, .[_B,G] z | %6
[K:treble] (3.D.[Af]._G (3.[_Be].D.[Af] (3.E.[^Gd].C (3.[=G_e]._E.[^F^c] | %7
 (3.D.[Ad].B, (3.[^G^c].C.[=G=c] (3.A,.[^FB]._B, (3.[=F_B].=B,.[E^Gd] | %8
 (3.A,.[EG^c].A, (3.[^FGd].A,.[E=Gc] (3.A,.[^DG=c].A, (3.[=D=FB].^G,.[^CE^A] | %9
 (3.=G,.[DFB].G, (3.[_E^Fc].G,.[D=FB] (3.G,.[^C=E_B].G, (3.[=C_EA].^F,.[B,D^G] | %10
 (3.=F,.[=C_E=A].F, (3.[B,D_A].F,.[_B,_DG] (3.E,.[=B,=D^G].E, (3.[_B,^C=A].E,.[A,=C^F] | %11
 (3._E,.[_B,_DG].E, (3.[A,C_G].E,.[_A,_CF][K:bass] (3.F,,._B,,._A, .=D z | %12
 (3.D,,.A,,.F, (3.^G,.B,.E (3.^C,,.^G,,.^E, (3.B,.=F z | %13
 (3.D,,.A,,.F, (3.^G,.B,.E (3.^C,,.^G,,.^E, (3.B,.^E z | %14
 (3.E,,.B,,.G, (3.^A,.^C.^F (3._E,,._B,,.G, (3._D.G z | %15
 (3.=E,,.B,,.G, (3.^A,.^C.^F (3._E,,._B,,.G, (3._D.G z | %16
 (3.^F,,.^C,.A, (3.=C._E._A (3.=F,,._E,.A, (3.E.=A z | %17
 (3._A,,._E,._C[K:treble] (3.=D.F._B[K:bass] (3.=G,,.=F,.=B,[K:treble] (3.F.=B z | %18
[K:bass] (3_C,_A,_E (3_A=EA, (3_B,,A,D _A z | (3_A,,_G,=C _G z (3!>!^F,,=E,^A, =E z | %20
 [E,,D,^G,]2[K:treble] (3.[_A_d].=E.[^Gc] (3.^F.[G=d].=F (3.[^G^c].E.[G=c] | %21
 (3.F.[^G^c].E (3.[G=c].F.[G^c] (3.E.[G=c].F (3.[G^c].E.[G=c] | %22
[K:treble] (3.A, A[Ec] (3.^C ^c[A^f] (3.A, A[E=c] (3.=C c[_A=f] | %23
 (3.A, A[Ec] (3._B, _A[Fd] (3._E, _D[B,G] (3.=E, =D[=B,^G] | %24
[K:bass] (3.A,, A,[E,C] (3.D,, A,[^F,D] (3.A,, A,[E,C] (3.^D,, A,[=F,^C] | %25
 (3.A,, A,[E,C] (3.F,, A,[_E,C] (3._B,, _A,[F,D] [E,,=E,][^G,D] |[M:2/4] x4 | x4 | x4 | x4 | x4 | %31
 [A,,E,A,]/[I:staff -1][CE]/[I:staff +1]B,/[I:staff -1][DFA]/[I:staff +1] [E,C]/[I:staff -1][E^G]/[I:staff +1][D^F]/[I:staff -1][Gce]/ | %32
[I:staff +1] [A,,E,A,]/[I:staff -1][CE]/[I:staff +1]B,/[I:staff -1][DFA]/[I:staff +1] [E,C]/[I:staff -1][E^G]/[I:staff +1][D^F]/[I:staff -1][Gce]/ | %33
[I:staff +1][K:treble] x4 | [Acea]/x/[Gceg]/ x/ [Fcef]/x/[Gceg]/ x/ | %35
 [Acea]/x/[Gceg]/ x/ [Fcef]/x/[Gceg]/ x/ | [Acea]/x/[Gceg]/ x/ [Fcef]/x/[Gceg]/ x/ | %37
 [Acea]/x/[Gceg]/ x/ [Fcef]/x/[Gceg]/ x/ | z/ c/B/A/ (3!>![Ee]Ac | F/A/G/F/ (3[Cc]FA | %40
 A/c/B/A/ (3[Ee]Ac | F/A/G/F/ (3!>![Cc]FA | G/_B/A/G/ (3!>![Dd]Gc | _E/G/F/E/ (3!>![_B,_B]EG | %44
 F/A/G/F/ (3[Cc]FA | F/A/G/F/ (3[Cc]FA | [D^FAd]2[K:bass] x2 | %47
 x2[I:staff -1] [D^FA]/A,/[I:staff +1][A,,D,^F,]/A,/ | z[K:treble] x x2 | x4 | x4 | %51
[K:bass]!ped![I:staff -1] [DFA]/A,/[I:staff +1][D,F,_B,]/_B,,/ z2!ped-up! | %52
 !>!D,,,2!ped! !-(!A,,2 | !-(!A,2 !-(!A2!ped-up! | %54
[K:treble] !-)!!>!a'2!ped! [ea^c'e']/x/[eac'e']/ x/!ped-up! | %55
!ped! [^c^fa^c']/x/[cfac']/ x/!ped-up!!ped! [Befb]/x/[Befb]/ z/!ped-up! | %56
!ped! [A^cea]/x/[Acea]/ x/!ped-up!!ped! [EAce]/x/[EAce]/ x/!ped-up! | %57
!ped! [^C^FA^c]/x/[CFAc]/ x/!ped-up!!ped! [B,EFB]/x/[B,EFB]/ x/!ped-up! | %58
!ped! x4!ped-up!!ped!!ped-up! | %59
[K:bass]!ped! [E,A,^CE]/x/[E,A,CE]/ x/!ped-up!!ped! [^C,^F,A,C]/x/[C,F,A,C]/ x/!ped-up! | %60
!ped! [A,,^C,E,A,]/x/[A,,C,E,A,]/ x/!ped-up!!ped! !>![^F,,C,^F,]/x/!>![F,,C,F,]/ x/!ped-up! | %61
!ped! x4!ped-up!!ped!!ped-up! | !>![A,,,E,,A,,] z[K:treble]!ped! x2!ped-up! | %63
 [A,A] z!ped! [Aa]/x/[Aa]/ x/!ped-up! | [Aa] z!ped! [aa']/x/[aa']/ x/ | %65
 [aa']/x/[aa']/x/[aa']/x/[aa']/ x/!ped-up! | !>![aa'] z z2 |[K:bass] [E,,B,,E,] z z2 | %68
 [A,,,A,,] z z2 |] %69
V:3
 x6!8va(! x!8va)! x | x6!8va(! x!8va)! x | x8 | x8 | x6!8va(! x!8va)! x | x6!8va(! x!8va)! x | %6
!8va(! x8 | x8 | x8 | x8 | x8 | x4!8va)! x4 | (3A2 _B2 =B2 (3^B2 =B2 _B2 | x8 | x8 | x8 | x8 | %17
!8va(! x8 | x8 | x8 | x8 | x8 | x8 | x8!8va)! | x8 | x8 |[M:2/4][K:bass] x4 | x4 | x4 | x4 | x4 | %31
[K:treble] x4 | x4 | x4 | x/!8va(! x7/2 | x4 | x4 | x4 | x4 | x4 | x4 | x4 | x4 | x4 | x4 | x4 | %46
 x2!8va)![K:bass] x2 | x2[K:treble] x2 | x4 | x4 | x4 | x2[K:bass] x2 | x2[K:treble] x2 | x4 | %54
!8va(! x4 | x4 | x4 | x4!8va)! | x4 | x4 | x4 |[K:bass] x4 | x2[K:treble] x2 | x2!8va(! x2 | x4 | %65
 x4!8va)! | x4 | x4 | x4 |] %69
V:4
 x8 | x8 | x8 |[K:bass] x8 | x8 | x8 |[K:treble] x8 | x8 | x8 | x8 | x8 | x4[K:bass] x4 | %12
 x2 (3x x E x2 (3x F x | x2 (3x x E x2 (3x ^E x | x2 (3x x ^F x2 (3x G x | x2 (3x x z x2 (3x G x | %16
 x2 (3x x _A x2 (3x =A x | x2[K:treble] (3x x _B[K:bass] x2[K:treble] (3x =B x |[K:bass] x8 | x8 | %20
 x2[K:treble] x6 | x8 |[K:treble] x8 | x8 |[K:bass] x8 | x8 |[M:2/4] x4 | x4 | x4 | x4 | x4 | x4 | %32
 x4 |[K:treble] x4 | x4 | x4 | x4 | x4 | x4 | x4 | x4 | x4 | x4 | x4 | x4 | x4 | x2[K:bass] x2 | %47
 x4 | x[K:treble] x3 | x4 | x4 |[K:bass] x4 | x4 | x4 |[K:treble] x4 | x4 | x4 | x4 | x4 | %59
[K:bass] x4 | x4 | x4 | x2[K:treble] x2 | x4 | x4 | x4 | x4 |[K:bass] x4 | x4 |] %69
V:5
!p! z4 (3z z .e (3.=g.f.e | .a z z2 (3z z .e (3.=g.f.e |!p! a z z2 z4 | %3
 (3z z .A (3.^G._B.=G (3:2:2.A2 .e (3.f.g.a | .d2 z2 (3z z .e (3.g.f.e | .a2 z2 (3z z .e (3.g.f.e | %6
 .a2 z2 z4 | (3z z .d (3.^c._e.=c .d2 z2 |!p! (3z z .^g (3._b z .a (3.^f z .=f .=g z | %9
 (3z z .^f (3._a z .g (3.e z ._e .=f z | (3z z e .d2 (3z z _e .^c2 | (3z z d (3c z ^c .d2 z2 | %12
 z2 (3z z E F4 | F z (3z z E F4 | E z (3z z ^F G4- | G z (3z z ^F G4 | ^F z (3z z ^G A4 | %17
 _A z (3z z _B =B4- | B z (3z z _e .[_Ad]2 (3z z _d |"_cresc." .[_Gc]2 (3z z =B [=E^A]2 (3z z =A | %20
 [^G,D^G]2 z2 z4 | z8 |!p! .[cea]2 !>![A^f]2 .[=cea]2 !>![_A=f]2 | %23
 .[cea]2 !>![_Af]2 .[G_B]2 !>![=D^G=e]2 | .[CA]2 !>![A,D^F]2 .[A,C]2 !>![A,^C=F]2 | %25
 .[A,=C]2 .[Ec]2 .[DF]2 .[^G,D^G]2 |[M:2/4][K:bass]!p! [E,A,C]2 z G,/^G,/ | %27
 !>!A,2 z"_cresc." G,/^G,/ | !>!A,2 z G,/^G,/ | !>!A,2 z G,/^G,/ |!f! !>!A,2[K:treble] E/^G/^F/E/ | %31
 .A z e/^g/^f/e/ | .a z E/^G/^F/E/ | .A z e'/^g'/^f'/e'/ | [aa'] z z [eg]/c/ | !>![ea]2 z [eg]/c/ | %36
 !>![ea]2 z [eg]/c/ | !>![ea]2 z2 |!ff! [CEA]4 | [_B,DG]4 | [CEA]4 | [A,CF]4 | [_B,DG]4 | %43
 [G,_B,_E]4 | [A,CF]4- | [A,CF]4 | [^F,A,D^F]2 z2 |!>(! [D^FA]4-!>)! |!mf! [DFA]3"_cresc." [D^FA] | %49
 [D^FA]2 .[DFA].[DFA] | [D=FA]2 .[DFA].[DFA] | [DFA]2 .[DFA].[DFA] | [DFA]2 .[A,DFA].[A,DFA] | %53
 [A,DFA]2 .[A,DFA].[A,DFA] |!ff! [A,^CEA]2 z2 | z4 |!ff! [A^cea]2 z2 | [A^cea]2 z2 | z2 [A^cea]2 | %59
 z2 [A^cea]2 | z [A^cea] [Acea]2 | z2 [A^cea]2 | z2!mf! [Aa-]2 |"_cresc." a4 | a2 [Aa]2- | [Aa]4 | %66
 !>![GA_ega]2 z2 |[K:bass]!p! [=E,=E] z z2 | A, z z2 |] %69
V:6
 x4 x2 d2 | c x x2 x2 d2 | c x x2 x4 | x8 | x2 x2 x2 d2 | d2 x2 x2 d2 | d2 x2 x4 | x8 | x8 | x8 | %10
 x8 | x8 | x4 B,4- | B, x x2 B,4 | B, x x2 ^C4- | C x x2 ^C4- | C x x2 _E4- | E x x2 F4- | %18
 F x x2 x4 | x8 | x8 | x8 | x8 | x8 | x8 | x8 |[M:2/4][K:bass] x4 | x4 | x4 | x4 | %30
 x2[K:treble] CC | C x cc | .c x CC | C x x2 | x4 | x4 | x4 | x4 | x4 | x4 | x4 | x4 | x4 | x4 | %44
 x4 | x4 | x4 | x4 | x4 | x4 | x4 | x4 | x4 | x4 | x4 | x4 | x4 | x4 | x4 | x4 | x4 | x4 | x2 ^c2 | %63
 [_Bd]2 [=B^d]2- | [Bd]2 [=ce]2 | [^cf]2 [d^f]2 | x4 |[K:bass] x4 | x4 |] %69
V:7
 z4 z2 .[E^G]2 | .[A,EA] z z2 z2 .[E^G]2 | [A,EA] z z2 z4 | z4 z2 (3.[^Gc]z.[A^c] | %4
 .[DA]2 z2 z2 .[G_B]2 | .[DA]2 z2 z2 .[G_B]2 | .[DA]2 z2 z4 | z4 (3z z .E (3.F.D.E | %8
 .A,2 .[F^Gd] z .[^D^Fc] z (3.[=D=FB]z._A, | .G,2 .[_E^Fc] z .[^C=E_B] z (3.[=C_EA]z[K:bass]._G, | %10
 F,2 (3[B,D^G]zF, E,2 (3.[_B,^CG]zE, | ._E,2 (3.[A,=C_G]zE, D,2 .[_A,DF]2 | z4 z2 (3z z ^C | %13
 D z z2 z4 | E, z z2 z2 (3z z ^D | E z z2 ^D,4 | ^F, z z2 =F,4 | _A, z z2 G,4 | %18
 _A, z z2 .[_B,D]2 z2 | .[_A,C]2 z2 [^F,^A,]2 z2 | [E,,E,]2 z2 z4 | z8 | %22
[K:treble] .A2 !>![^C^F]2 .A2 !>![C=F]2 | .=A2[K:bass] !>![_B,D]2 .[_E,_D]2 !>!=E,2 | %24
 .[A,,E,]2 !>![D,,D,]2 .[A,,E,]2 !>![^D,,^D,]2 | .[A,,E,]2 .[F,A,]2 .[A,,A,]2 .[E,,E,]2 | %26
[M:2/4] [A,,,A,,]2 z G,,/^G,,/ | !>![A,,,A,,]2 z G,,/^G,,/ | !>![A,,,A,,]2 z G,,/^G,,/ | %29
 !>![A,,,A,,]2 z G,,/^G,,/ | !>![A,,,A,,]2!f! .[E,^G,].[E,G,] | [A,,E,A,] z[K:treble] .[E^G].[EG] | %32
 .[A,EA] z[K:bass] .[E,^G,].[E,G,] | [A,,E,A,] z[K:treble] [E^Gce][EGce] | [Ace] z z =G | %35
 !>!A2 z =G | !>!A2 z =G | !>!A2 z2 |[K:bass] [A,,E,A,]4 | [G,,D,G,]4 | [A,,E,A,]4 | %41
 !>![F,,C,F,]4 | [G,,D,G,]4 | [_E,,_B,,_E,]4 | !>![F,,C,F,]4- | [F,,C,F,]4 |!ff! [D,,A,,D,]2 z2 | %47
 z4 | z4 | z4 | z2 .[D,A,].[D,A,] | [D,A,]2 .[D,A,].[D,A,] | [D,A,]2 .[D,,A,,D,].[D,,A,,D,] | %53
 [D,,A,,D,]2 .[D,,A,,D,].[D,,A,,D,] | [A,,,E,,A,,]2 z2 | z4 | [A,,,^C,,E,,A,,]2 z2 | %57
 [A,,,^C,,E,,A,,]2 z2 | z2 [A,,,^C,,E,,A,,]2 | z2 [A,,,^C,,E,,A,,]2 | %60
 z [A,,,^C,,E,,A,,] [A,,,C,,E,,A,,]2 | z2 [A,,,^C,,E,,A,,]2 | z2 [A,,,A,,]2 | %63
 [F,_B,D]2 [^F,=B,^D]2- | [F,B,D]2 [G,CE]2 | [^G,^CF]2 [A,D^F]2 | !>![_E,,_B,,G,]2 z2 | =E,, z z2 | %68
 [A,,,A,,] z z2 |] %69
V:8
 x8 | x8 | x8 | x8 | x8 | x8 | x8 | x8 | x8 | x22/3[K:bass] x2/3 | x8 | x8 | x4 ^C,4 | %13
 D, x x2 ^C,4 | x4 ^D,4 | E, x x2 x4 | x8 | x8 | x8 | x8 | x8 | x8 |[K:treble] x8 | x2[K:bass] x6 | %24
 x8 | x8 |[M:2/4] x4 | x4 | x4 | x4 | x4 | x2[K:treble] x2 | x2[K:bass] x2 | x2[K:treble] x2 | x4 | %35
 x4 | x4 | x4 |[K:bass] x4 | x4 | x4 | x4 | x4 | x4 | x4 | x4 | x4 | x4 | x4 | x4 | x4 | x4 | x4 | %53
 x4 | x4 | x4 | x4 | x4 | x4 | x4 | x4 | x4 | x4 | x4 | !>![A,,,A,,]4 | x4 | x4 | x4 | x4 |] %69

